(G-CODE GENERATED BY FLATCAM v8.994 - www.flatcam.org - Version Date: 2020/11/7)

(Name: kicad-workspace-PTH.drl_cnc)
(Type: G-code from Geometry)
(Units: MM)

(Created on Wednesday, 25 October 2023 at 19:16)

(This preprocessor is used with a motion controller loaded with GRBL firmware.)
(It is configured to be compatible with almost any version of GRBL firmware.)


(TOOLS DIAMETER: )
(Tool: 1 -> Dia: 0.75)
(Tool: 2 -> Dia: 0.8)
(Tool: 3 -> Dia: 0.9)
(Tool: 4 -> Dia: 1.0)
(Tool: 5 -> Dia: 1.1)
(Tool: 6 -> Dia: 2.2)

(FEEDRATE Z: )
(Tool: 1 -> Feedrate: 90.0)
(Tool: 2 -> Feedrate: 90.0)
(Tool: 3 -> Feedrate: 90.0)
(Tool: 4 -> Feedrate: 90.0)
(Tool: 5 -> Feedrate: 90.0)
(Tool: 6 -> Feedrate: 90.0)

(FEEDRATE RAPIDS: )
(Tool: 1 -> Feedrate Rapids: 1500)
(Tool: 2 -> Feedrate Rapids: 1500)
(Tool: 3 -> Feedrate Rapids: 1500)
(Tool: 4 -> Feedrate Rapids: 1500)
(Tool: 5 -> Feedrate Rapids: 1500)
(Tool: 6 -> Feedrate Rapids: 1500)

(Z_CUT: )
(Tool: 1 -> Z_Cut: -2.2)
(Tool: 2 -> Z_Cut: -2.2)
(Tool: 3 -> Z_Cut: -2.2)
(Tool: 4 -> Z_Cut: -2.2)
(Tool: 5 -> Z_Cut: -2.2)
(Tool: 6 -> Z_Cut: -2.2)

(Tools Offset: )
(Tool: 1 -> Offset Z: 0.0)
(Tool: 4 -> Offset Z: 0.0)
(Tool: 3 -> Offset Z: 0.0)
(Tool: 2 -> Offset Z: 0.0)
(Tool: 6 -> Offset Z: 0.0)
(Tool: 5 -> Offset Z: 0.0)

(Z_MOVE: )
(Tool: 1 -> Z_Move: 2)
(Tool: 2 -> Z_Move: 2)
(Tool: 3 -> Z_Move: 2)
(Tool: 4 -> Z_Move: 2)
(Tool: 5 -> Z_Move: 2)
(Tool: 6 -> Z_Move: 2)

(Z Toolchange: 10.0 mm)
(X,Y Toolchange: 0.0000, 0.0000 mm)
(Z Start: None mm)
(Z End: 10.0 mm)
(X,Y End: None mm)
(Steps per circle: 64)
(Steps per circle: 64)
(Preprocessor Excellon: grbl_11)

(X range:    1.5000 ...  134.8750  mm)
(Y range:    3.1250 ...   37.9750  mm)

(Spindle Speed: 0 RPM)
G21
G90
G17
G94


G01 F90.00

M5             
G00 Z10.0000
G00 X0.0000 Y0.0000                
T1
M6
(MSG, Change to Tool Dia = 0.7500 ||| Total drills for tool T1 = 68)
M0
G00 Z10.0000

G01 F90.00
M03
G00 X77.2750 Y33.0500
G01 Z-2.2000
G01 Z0
G00 Z2.0000
G00 X77.2750 Y33.0500
G01 Z-2.2000
G01 Z0
G00 Z2.0000
G00 X77.2750 Y31.7800
G01 Z-2.2000
G01 Z0
G00 Z2.0000
G00 X77.2750 Y30.5100
G01 Z-2.2000
G01 Z0
G00 Z2.0000
G00 X71.1000 Y31.7750
G01 Z-2.2000
G01 Z0
G00 Z2.0000
G00 X73.3500 Y23.3750
G01 Z-2.2000
G01 Z0
G00 Z2.0000
G00 X67.0750 Y23.3650
G01 Z-2.2000
G01 Z0
G00 Z2.0000
G00 X55.8600 Y31.7750
G01 Z-2.2000
G01 Z0
G00 Z2.0000
G00 X44.6250 Y30.7450
G01 Z-2.2000
G01 Z0
G00 Z2.0000
G00 X44.6250 Y28.2050
G01 Z-2.2000
G01 Z0
G00 Z2.0000
G00 X44.6250 Y25.6650
G01 Z-2.2000
G01 Z0
G00 Z2.0000
G00 X44.6250 Y23.1250
G01 Z-2.2000
G01 Z0
G00 Z2.0000
G00 X44.6250 Y20.5850
G01 Z-2.2000
G01 Z0
G00 Z2.0000
G00 X44.6250 Y18.0450
G01 Z-2.2000
G01 Z0
G00 Z2.0000
G00 X44.6250 Y15.5050
G01 Z-2.2000
G01 Z0
G00 Z2.0000
G00 X44.6250 Y12.9650
G01 Z-2.2000
G01 Z0
G00 Z2.0000
G00 X41.7150 Y18.0500
G01 Z-2.2000
G01 Z0
G00 Z2.0000
G00 X39.2750 Y23.1000
G01 Z-2.2000
G01 Z0
G00 Z2.0000
G00 X36.6350 Y32.9050
G01 Z-2.2000
G01 Z0
G00 Z2.0000
G00 X34.0950 Y32.9050
G01 Z-2.2000
G01 Z0
G00 Z2.0000
G00 X31.5550 Y32.9050
G01 Z-2.2000
G01 Z0
G00 Z2.0000
G00 X29.0150 Y32.9050
G01 Z-2.2000
G01 Z0
G00 Z2.0000
G00 X26.4750 Y32.9050
G01 Z-2.2000
G01 Z0
G00 Z2.0000
G00 X23.9350 Y32.9050
G01 Z-2.2000
G01 Z0
G00 Z2.0000
G00 X21.3950 Y32.9050
G01 Z-2.2000
G01 Z0
G00 Z2.0000
G00 X18.8550 Y32.9050
G01 Z-2.2000
G01 Z0
G00 Z2.0000
G00 X24.0350 Y23.1000
G01 Z-2.2000
G01 Z0
G00 Z2.0000
G00 X26.4750 Y18.0500
G01 Z-2.2000
G01 Z0
G00 Z2.0000
G00 X26.4750 Y10.0450
G01 Z-2.2000
G01 Z0
G00 Z2.0000
G00 X29.0150 Y10.0450
G01 Z-2.2000
G01 Z0
G00 Z2.0000
G00 X31.5550 Y10.0450
G01 Z-2.2000
G01 Z0
G00 Z2.0000
G00 X34.0950 Y10.0450
G01 Z-2.2000
G01 Z0
G00 Z2.0000
G00 X36.6350 Y10.0450
G01 Z-2.2000
G01 Z0
G00 Z2.0000
G00 X23.9350 Y10.0450
G01 Z-2.2000
G01 Z0
G00 Z2.0000
G00 X21.3950 Y10.0450
G01 Z-2.2000
G01 Z0
G00 Z2.0000
G00 X18.8550 Y10.0450
G01 Z-2.2000
G01 Z0
G00 Z2.0000
G00 X2.6000 Y4.2250
G01 Z-2.2000
G01 Z0
G00 Z2.0000
G00 X2.7750 Y36.8750
G01 Z-2.2000
G01 Z0
G00 Z2.0000
G00 X67.0750 Y8.1250
G01 Z-2.2000
G01 Z0
G00 Z2.0000
G00 X73.3500 Y8.1350
G01 Z-2.2000
G01 Z0
G00 Z2.0000
G00 X84.1750 Y12.4250
G01 Z-2.2000
G01 Z0
G00 Z2.0000
G00 X87.8250 Y23.3650
G01 Z-2.2000
G01 Z0
G00 Z2.0000
G00 X84.1750 Y27.6650
G01 Z-2.2000
G01 Z0
G00 Z2.0000
G00 X87.8250 Y33.5250
G01 Z-2.2000
G01 Z0
G00 Z2.0000
G00 X97.7250 Y25.6850
G01 Z-2.2000
G01 Z0
G00 Z2.0000
G00 X97.7250 Y23.1450
G01 Z-2.2000
G01 Z0
G00 Z2.0000
G00 X97.7250 Y20.6050
G01 Z-2.2000
G01 Z0
G00 Z2.0000
G00 X97.7250 Y18.0650
G01 Z-2.2000
G01 Z0
G00 Z2.0000
G00 X103.2100 Y17.2750
G01 Z-2.2000
G01 Z0
G00 Z2.0000
G00 X105.7500 Y17.2750
G01 Z-2.2000
G01 Z0
G00 Z2.0000
G00 X110.2450 Y15.3100
G01 Z-2.2000
G01 Z0
G00 Z2.0000
G00 X114.7450 Y15.3100
G01 Z-2.2000
G01 Z0
G00 Z2.0000
G00 X120.4050 Y15.3100
G01 Z-2.2000
G01 Z0
G00 Z2.0000
G00 X124.9050 Y15.3100
G01 Z-2.2000
G01 Z0
G00 Z2.0000
G00 X124.9050 Y8.8100
G01 Z-2.2000
G01 Z0
G00 Z2.0000
G00 X120.4050 Y8.8100
G01 Z-2.2000
G01 Z0
G00 Z2.0000
G00 X114.7450 Y8.8100
G01 Z-2.2000
G01 Z0
G00 Z2.0000
G00 X110.2450 Y8.8100
G01 Z-2.2000
G01 Z0
G00 Z2.0000
G00 X108.4350 Y23.2800
G01 Z-2.2000
G01 Z0
G00 Z2.0000
G00 X106.4350 Y29.2800
G01 Z-2.2000
G01 Z0
G00 Z2.0000
G00 X108.4350 Y35.2800
G01 Z-2.2000
G01 Z0
G00 Z2.0000
G00 X120.6350 Y35.2800
G01 Z-2.2000
G01 Z0
G00 Z2.0000
G00 X120.6350 Y23.2800
G01 Z-2.2000
G01 Z0
G00 Z2.0000
G00 X134.3750 Y24.2000
G01 Z-2.2000
G01 Z0
G00 Z2.0000
G00 X134.3750 Y29.2000
G01 Z-2.2000
G01 Z0
G00 Z2.0000
G00 X134.3750 Y34.2000
G01 Z-2.2000
G01 Z0
G00 Z2.0000
G00 X134.3750 Y15.2300
G01 Z-2.2000
G01 Z0
G00 Z2.0000
G00 X134.3750 Y10.2300
G01 Z-2.2000
G01 Z0
G00 Z2.0000
G00 X128.4000 Y4.9500
G01 Z-2.2000
G01 Z0
G00 Z2.0000
M05
G00 Z10.00


