(G-CODE GENERATED BY FLATCAM v8.994 - www.flatcam.org - Version Date: 2020/11/7)

(Name: kicad-workspace-F_Cu.gbr_noncopper_cnc)
(Type: G-code from Geometry)
(Units: MM)

(Created on Wednesday, 25 October 2023 at 19:14)

(This preprocessor is the default preprocessor used by FlatCAM.)
(It is made to work with MACH3 compatible motion controllers.)

(TOOL DIAMETER: 0.1 mm)
(Feedrate_XY: 35.0 mm/min)
(Feedrate_Z: 50.0 mm/min)
(Feedrate rapids 1500.0 mm/min)

(Z_Cut: -0.15 mm)
(Z_Move: 2.0 mm)
(Z Start: None mm)
(Z End: 10.0 mm)
(X,Y End: None mm)
(Steps per circle: 64)
(Preprocessor Geometry: default)

(X range:    0.3000 ...  138.7755  mm)
(Y range:    1.2995 ...   39.5505  mm)

(Spindle Speed: 0.0 RPM)
G21
G90
G94

G01 F35.00

M5
G00 Z15.0000
G00 X0.0000 Y0.0000
T1
M6    
(MSG, Change to Tool Dia = 0.1000)
M0
G00 Z15.0000

M03
G01 F35.00
G00 X0.3000 Y1.2995
G01 F50.00
G01 Z-0.1500
G01 F35.00
G01 X0.3000 Y39.5505
G01 X138.7755 Y39.5505
G01 X138.7755 Y1.2995
G01 X0.3000 Y1.2995
G00 Z2.0000
G00 X0.4106 Y4.0094
G01 F50.00
G01 Z-0.1500
G01 F35.00
G01 X0.4423 Y3.7958
G01 X0.4947 Y3.5864
G01 X0.5675 Y3.3831
G01 X0.6598 Y3.1879
G01 X0.7708 Y3.0027
G01 X0.8994 Y2.8293
G01 X1.0444 Y2.6694
G01 X1.2043 Y2.5244
G01 X1.3777 Y2.3958
G01 X1.5629 Y2.2848
G01 X1.7581 Y2.1925
G01 X1.9614 Y2.1197
G01 X2.1708 Y2.0673
G01 X2.3844 Y2.0356
G01 X2.6000 Y2.0250
G01 X2.8156 Y2.0356
G01 X3.0292 Y2.0673
G01 X3.2386 Y2.1197
G01 X3.4419 Y2.1925
G01 X3.6371 Y2.2848
G01 X3.8223 Y2.3958
G01 X3.9957 Y2.5244
G01 X4.1556 Y2.6694
G01 X4.3006 Y2.8293
G01 X4.4292 Y3.0027
G01 X4.5402 Y3.1879
G01 X4.6325 Y3.3831
G01 X4.7053 Y3.5864
G01 X4.7577 Y3.7958
G01 X4.7894 Y4.0094
G01 X4.8000 Y4.2250
G01 X4.7894 Y4.4406
G01 X4.7577 Y4.6542
G01 X4.7053 Y4.8636
G01 X4.6325 Y5.0669
G01 X4.5402 Y5.2621
G01 X4.4292 Y5.4473
G01 X4.3006 Y5.6207
G01 X4.1556 Y5.7806
G01 X3.9957 Y5.9256
G01 X3.8223 Y6.0542
G01 X3.6371 Y6.1652
G01 X3.4419 Y6.2575
G01 X3.2386 Y6.3303
G01 X3.0292 Y6.3827
G01 X2.8156 Y6.4144
G01 X2.6000 Y6.4250
G01 X2.3844 Y6.4144
G01 X2.1708 Y6.3827
G01 X1.9614 Y6.3303
G01 X1.7581 Y6.2575
G01 X1.5629 Y6.1652
G01 X1.3777 Y6.0542
G01 X1.2043 Y5.9256
G01 X1.0444 Y5.7806
G01 X0.8994 Y5.6207
G01 X0.7708 Y5.4473
G01 X0.6598 Y5.2621
G01 X0.5675 Y5.0669
G01 X0.4947 Y4.8636
G01 X0.4423 Y4.6542
G01 X0.4106 Y4.4406
G01 X0.4000 Y4.2250
G01 X0.4106 Y4.0094
G00 Z2.0000
G00 X14.2495 Y7.7250
G01 F50.00
G01 Z-0.1500
G01 F35.00
G01 X14.2543 Y7.6269
G01 X14.2687 Y7.5298
G01 X14.2926 Y7.4346
G01 X14.3257 Y7.3421
G01 X14.3676 Y7.2534
G01 X14.4181 Y7.1692
G01 X14.4766 Y7.0903
G01 X14.5425 Y7.0175
G01 X18.1425 Y3.4175
G01 X18.2153 Y3.3516
G01 X18.2942 Y3.2931
G01 X18.3784 Y3.2426
G01 X18.4671 Y3.2007
G01 X18.5596 Y3.1676
G01 X18.6548 Y3.1437
G01 X18.7519 Y3.1293
G01 X18.8500 Y3.1245
G01 X36.8606 Y3.1245
G01 X38.2925 Y1.6925
G01 X38.3653 Y1.6266
G01 X38.4442 Y1.5681
G01 X38.5284 Y1.5176
G01 X38.6171 Y1.4757
G01 X38.7096 Y1.4426
G01 X38.8048 Y1.4187
G01 X38.9019 Y1.4043
G01 X39.0000 Y1.3995
G01 X52.3750 Y1.3995
G01 X52.4731 Y1.4043
G01 X52.5702 Y1.4187
G01 X52.6654 Y1.4426
G01 X52.7579 Y1.4757
G01 X52.8466 Y1.5176
G01 X52.9308 Y1.5681
G01 X53.0097 Y1.6266
G01 X53.0825 Y1.6925
G01 X55.8644 Y4.4745
G01 X70.6900 Y4.4745
G01 X70.7881 Y4.4793
G01 X70.8852 Y4.4937
G01 X70.9804 Y4.5176
G01 X71.0729 Y4.5507
G01 X71.1616 Y4.5926
G01 X71.2458 Y4.6431
G01 X71.3247 Y4.7016
G01 X71.3975 Y4.7675
G01 X73.3500 Y6.7201
G01 X75.0025 Y5.0675
G01 X75.0753 Y5.0016
G01 X75.1542 Y4.9431
G01 X75.2384 Y4.8926
G01 X75.3271 Y4.8507
G01 X75.4196 Y4.8176
G01 X75.5148 Y4.7937
G01 X75.6119 Y4.7793
G01 X75.7100 Y4.7745
G01 X121.8700 Y4.7745
G01 X121.9681 Y4.7793
G01 X122.0652 Y4.7937
G01 X122.1604 Y4.8176
G01 X122.2529 Y4.8507
G01 X122.3416 Y4.8926
G01 X122.4258 Y4.9431
G01 X122.5047 Y5.0016
G01 X122.5775 Y5.0675
G01 X125.0699 Y7.5600
G01 X126.1550 Y7.5600
G01 X126.1550 Y10.0600
G01 X123.6550 Y10.0600
G01 X123.6550 Y8.9749
G01 X121.4556 Y6.7755
G01 X76.1244 Y6.7755
G01 X74.6000 Y8.2999
G01 X74.6000 Y9.3850
G01 X72.1000 Y9.3850
G01 X72.1000 Y8.2999
G01 X70.2756 Y6.4755
G01 X55.4500 Y6.4755
G01 X55.3519 Y6.4707
G01 X55.2548 Y6.4563
G01 X55.1596 Y6.4324
G01 X55.0671 Y6.3993
G01 X54.9784 Y6.3574
G01 X54.8942 Y6.3069
G01 X54.8153 Y6.2484
G01 X54.7425 Y6.1825
G01 X51.9606 Y3.4005
G01 X39.4144 Y3.4005
G01 X37.9825 Y4.8325
G01 X37.9097 Y4.8984
G01 X37.8308 Y4.9569
G01 X37.7466 Y5.0074
G01 X37.6579 Y5.0493
G01 X37.5654 Y5.0824
G01 X37.4702 Y5.1063
G01 X37.3731 Y5.1207
G01 X37.2750 Y5.1255
G01 X19.2644 Y5.1255
G01 X16.2505 Y8.1394
G01 X16.2505 Y20.6106
G01 X24.6425 Y29.0025
G01 X24.7084 Y29.0753
G01 X24.7669 Y29.1542
G01 X24.8174 Y29.2384
G01 X24.8593 Y29.3271
G01 X24.8924 Y29.4196
G01 X24.9163 Y29.5148
G01 X24.9307 Y29.6119
G01 X24.9355 Y29.7100
G01 X24.9355 Y32.9050
G01 X24.9350 Y32.9152
G01 X24.9350 Y33.9050
G01 X23.9452 Y33.9050
G01 X23.9350 Y33.9055
G01 X23.9248 Y33.9050
G01 X22.9350 Y33.9050
G01 X22.9350 Y32.9152
G01 X22.9345 Y32.9050
G01 X22.9345 Y30.1244
G01 X14.5425 Y21.7325
G01 X14.4766 Y21.6597
G01 X14.4181 Y21.5808
G01 X14.3676 Y21.4966
G01 X14.3257 Y21.4079
G01 X14.2926 Y21.3154
G01 X14.2687 Y21.2202
G01 X14.2543 Y21.1231
G01 X14.2495 Y21.0250
G01 X14.2495 Y7.7250
G00 Z2.0000
G00 X17.8545 Y8.4250
G01 F50.00
G01 Z-0.1500
G01 F35.00
G01 X17.8593 Y8.3269
G01 X17.8737 Y8.2298
G01 X17.8976 Y8.1346
G01 X17.9307 Y8.0421
G01 X17.9726 Y7.9534
G01 X18.0231 Y7.8691
G01 X18.0816 Y7.7903
G01 X18.1475 Y7.7175
G01 X19.6725 Y6.1925
G01 X19.7453 Y6.1266
G01 X19.8241 Y6.0681
G01 X19.9084 Y6.0176
G01 X19.9971 Y5.9757
G01 X20.0896 Y5.9426
G01 X20.1848 Y5.9187
G01 X20.2819 Y5.9043
G01 X20.3800 Y5.8995
G01 X38.0606 Y5.8995
G01 X39.6425 Y4.3175
G01 X39.7153 Y4.2516
G01 X39.7942 Y4.1931
G01 X39.8784 Y4.1426
G01 X39.9671 Y4.1007
G01 X40.0596 Y4.0676
G01 X40.1548 Y4.0437
G01 X40.2519 Y4.0293
G01 X40.3500 Y4.0245
G01 X51.1000 Y4.0245
G01 X51.1981 Y4.0293
G01 X51.2952 Y4.0437
G01 X51.3904 Y4.0676
G01 X51.4829 Y4.1007
G01 X51.5716 Y4.1426
G01 X51.6558 Y4.1931
G01 X51.7347 Y4.2516
G01 X51.8075 Y4.3175
G01 X54.6144 Y7.1245
G01 X65.8250 Y7.1245
G01 X65.8250 Y6.8750
G01 X68.3250 Y6.8750
G01 X68.3250 Y7.9601
G01 X70.3894 Y10.0245
G01 X75.7106 Y10.0245
G01 X76.9925 Y8.7425
G01 X77.0653 Y8.6766
G01 X77.1442 Y8.6181
G01 X77.2284 Y8.5676
G01 X77.3171 Y8.5257
G01 X77.4096 Y8.4926
G01 X77.5048 Y8.4687
G01 X77.6019 Y8.4543
G01 X77.7000 Y8.4495
G01 X106.2250 Y8.4495
G01 X106.3231 Y8.4543
G01 X106.4202 Y8.4687
G01 X106.5154 Y8.4926
G01 X106.6079 Y8.5257
G01 X106.6966 Y8.5676
G01 X106.7808 Y8.6181
G01 X106.8597 Y8.6766
G01 X106.9325 Y8.7425
G01 X108.8394 Y10.6495
G01 X111.0850 Y10.6495
G01 X111.1831 Y10.6543
G01 X111.2802 Y10.6687
G01 X111.3754 Y10.6926
G01 X111.4679 Y10.7257
G01 X111.5566 Y10.7676
G01 X111.6408 Y10.8181
G01 X111.7197 Y10.8766
G01 X111.7925 Y10.9425
G01 X114.9099 Y14.0600
G01 X115.9950 Y14.0600
G01 X115.9950 Y16.5600
G01 X113.4950 Y16.5600
G01 X113.4950 Y15.4749
G01 X110.6706 Y12.6505
G01 X108.4250 Y12.6505
G01 X108.3269 Y12.6457
G01 X108.2298 Y12.6313
G01 X108.1346 Y12.6074
G01 X108.0421 Y12.5743
G01 X107.9534 Y12.5324
G01 X107.8691 Y12.4819
G01 X107.7903 Y12.4234
G01 X107.7175 Y12.3575
G01 X105.8106 Y10.4505
G01 X78.1144 Y10.4505
G01 X76.8325 Y11.7325
G01 X76.7597 Y11.7984
G01 X76.6808 Y11.8569
G01 X76.5966 Y11.9074
G01 X76.5079 Y11.9493
G01 X76.4154 Y11.9824
G01 X76.3202 Y12.0063
G01 X76.2231 Y12.0207
G01 X76.1250 Y12.0255
G01 X69.9750 Y12.0255
G01 X69.8769 Y12.0207
G01 X69.7798 Y12.0063
G01 X69.6846 Y11.9824
G01 X69.5921 Y11.9493
G01 X69.5034 Y11.9074
G01 X69.4192 Y11.8569
G01 X69.3403 Y11.7984
G01 X69.2675 Y11.7325
G01 X66.9101 Y9.3750
G01 X65.8250 Y9.3750
G01 X65.8250 Y9.1255
G01 X54.2000 Y9.1255
G01 X54.1019 Y9.1207
G01 X54.0048 Y9.1063
G01 X53.9096 Y9.0824
G01 X53.8171 Y9.0493
G01 X53.7284 Y9.0074
G01 X53.6442 Y8.9569
G01 X53.5653 Y8.8984
G01 X53.4925 Y8.8325
G01 X50.6856 Y6.0255
G01 X40.7644 Y6.0255
G01 X39.1825 Y7.6075
G01 X39.1097 Y7.6734
G01 X39.0308 Y7.7319
G01 X38.9466 Y7.7824
G01 X38.8579 Y7.8243
G01 X38.7654 Y7.8574
G01 X38.6702 Y7.8813
G01 X38.5731 Y7.8957
G01 X38.4750 Y7.9005
G01 X20.7944 Y7.9005
G01 X19.8555 Y8.8394
G01 X19.8555 Y10.0450
G01 X19.8550 Y10.0552
G01 X19.8550 Y11.0450
G01 X18.8652 Y11.0450
G01 X18.8550 Y11.0455
G01 X18.8448 Y11.0450
G01 X17.8550 Y11.0450
G01 X17.8550 Y10.0552
G01 X17.8545 Y10.0450
G01 X17.8545 Y8.4250
G00 Z2.0000
G00 X22.9345 Y19.3600
G01 F50.00
G01 Z-0.1500
G01 F35.00
G01 X22.9345 Y10.0450
G01 X22.9350 Y10.0348
G01 X22.9350 Y9.0450
G01 X23.9248 Y9.0450
G01 X23.9350 Y9.0445
G01 X23.9452 Y9.0450
G01 X24.9350 Y9.0450
G01 X24.9350 Y10.0348
G01 X24.9355 Y10.0450
G01 X24.9355 Y18.9456
G01 X33.1944 Y27.2045
G01 X44.6250 Y27.2045
G01 X44.6352 Y27.2050
G01 X45.6250 Y27.2050
G01 X45.6250 Y28.1948
G01 X45.6255 Y28.2050
G01 X45.6250 Y28.2152
G01 X45.6250 Y29.2050
G01 X44.6352 Y29.2050
G01 X44.6250 Y29.2055
G01 X32.7800 Y29.2055
G01 X32.6819 Y29.2007
G01 X32.5848 Y29.1863
G01 X32.4896 Y29.1624
G01 X32.3971 Y29.1293
G01 X32.3084 Y29.0874
G01 X32.2242 Y29.0369
G01 X32.1453 Y28.9784
G01 X32.0725 Y28.9125
G01 X23.2275 Y20.0675
G01 X23.1616 Y19.9947
G01 X23.1031 Y19.9158
G01 X23.0526 Y19.8316
G01 X23.0107 Y19.7429
G01 X22.9776 Y19.6504
G01 X22.9537 Y19.5552
G01 X22.9393 Y19.4581
G01 X22.9345 Y19.3600
G00 Z2.0000
G00 X20.3945 Y20.4600
G01 F50.00
G01 Z-0.1500
G01 F35.00
G01 X20.3945 Y10.0450
G01 X20.3950 Y10.0348
G01 X20.3950 Y9.0450
G01 X21.3848 Y9.0450
G01 X21.3950 Y9.0445
G01 X21.4052 Y9.0450
G01 X22.3950 Y9.0450
G01 X22.3950 Y10.0348
G01 X22.3955 Y10.0450
G01 X22.3955 Y20.0456
G01 X24.4499 Y22.1000
G01 X25.0350 Y22.1000
G01 X25.0350 Y23.0898
G01 X25.0355 Y23.1000
G01 X25.0350 Y23.1102
G01 X25.0350 Y24.1000
G01 X24.0452 Y24.1000
G01 X24.0350 Y24.1005
G01 X24.0248 Y24.1000
G01 X23.0350 Y24.1000
G01 X23.0350 Y23.5149
G01 X20.6875 Y21.1675
G01 X20.6216 Y21.0947
G01 X20.5631 Y21.0158
G01 X20.5126 Y20.9316
G01 X20.4707 Y20.8429
G01 X20.4376 Y20.7504
G01 X20.4137 Y20.6552
G01 X20.3993 Y20.5581
G01 X20.3945 Y20.4600
G00 Z2.0000
G00 X25.4745 Y18.0500
G01 F50.00
G01 Z-0.1500
G01 F35.00
G01 X25.4745 Y10.0450
G01 X25.4750 Y10.0348
G01 X25.4750 Y9.0450
G01 X26.4648 Y9.0450
G01 X26.4750 Y9.0445
G01 X26.4852 Y9.0450
G01 X27.4750 Y9.0450
G01 X27.4750 Y10.0348
G01 X27.4755 Y10.0450
G01 X27.4755 Y18.0500
G01 X27.4750 Y18.0602
G01 X27.4750 Y19.0500
G01 X26.4852 Y19.0500
G01 X26.4750 Y19.0505
G01 X26.4648 Y19.0500
G01 X25.4750 Y19.0500
G01 X25.4750 Y18.0602
G01 X25.4745 Y18.0500
G00 Z2.0000
G00 X28.0145 Y17.4400
G01 F50.00
G01 Z-0.1500
G01 F35.00
G01 X28.0145 Y10.0450
G01 X28.0150 Y10.0348
G01 X28.0150 Y9.0450
G01 X29.0048 Y9.0450
G01 X29.0150 Y9.0445
G01 X29.0252 Y9.0450
G01 X30.0150 Y9.0450
G01 X30.0150 Y10.0348
G01 X30.0155 Y10.0450
G01 X30.0155 Y17.0256
G01 X37.6544 Y24.6645
G01 X44.6250 Y24.6645
G01 X44.6352 Y24.6650
G01 X45.6250 Y24.6650
G01 X45.6250 Y25.6548
G01 X45.6255 Y25.6650
G01 X45.6250 Y25.6752
G01 X45.6250 Y26.6650
G01 X44.6352 Y26.6650
G01 X44.6250 Y26.6655
G01 X37.2400 Y26.6655
G01 X37.1419 Y26.6607
G01 X37.0448 Y26.6463
G01 X36.9496 Y26.6224
G01 X36.8571 Y26.5893
G01 X36.7684 Y26.5474
G01 X36.6842 Y26.4969
G01 X36.6053 Y26.4384
G01 X36.5325 Y26.3725
G01 X28.3075 Y18.1475
G01 X28.2416 Y18.0747
G01 X28.1831 Y17.9958
G01 X28.1326 Y17.9116
G01 X28.0907 Y17.8229
G01 X28.0576 Y17.7304
G01 X28.0337 Y17.6352
G01 X28.0193 Y17.5381
G01 X28.0145 Y17.4400
G00 Z2.0000
G00 X30.5545 Y15.0800
G01 F50.00
G01 Z-0.1500
G01 F35.00
G01 X30.5545 Y10.0450
G01 X30.5550 Y10.0348
G01 X30.5550 Y9.0450
G01 X31.5448 Y9.0450
G01 X31.5550 Y9.0445
G01 X31.5652 Y9.0450
G01 X32.5550 Y9.0450
G01 X32.5550 Y10.0348
G01 X32.5555 Y10.0450
G01 X32.5555 Y14.6656
G01 X37.4744 Y19.5845
G01 X44.6250 Y19.5845
G01 X44.6352 Y19.5850
G01 X45.6250 Y19.5850
G01 X45.6250 Y20.5748
G01 X45.6255 Y20.5850
G01 X45.6250 Y20.5952
G01 X45.6250 Y21.5850
G01 X44.6352 Y21.5850
G01 X44.6250 Y21.5855
G01 X37.0600 Y21.5855
G01 X36.9619 Y21.5807
G01 X36.8648 Y21.5663
G01 X36.7696 Y21.5424
G01 X36.6771 Y21.5093
G01 X36.5884 Y21.4674
G01 X36.5042 Y21.4169
G01 X36.4253 Y21.3584
G01 X36.3525 Y21.2925
G01 X30.8475 Y15.7875
G01 X30.7816 Y15.7147
G01 X30.7231 Y15.6358
G01 X30.6726 Y15.5516
G01 X30.6307 Y15.4629
G01 X30.5976 Y15.3704
G01 X30.5737 Y15.2752
G01 X30.5593 Y15.1781
G01 X30.5545 Y15.0800
G00 Z2.0000
G00 X33.0945 Y13.0450
G01 F50.00
G01 Z-0.1500
G01 F35.00
G01 X33.0945 Y10.0450
G01 X33.0950 Y10.0348
G01 X33.0950 Y9.0450
G01 X34.0848 Y9.0450
G01 X34.0950 Y9.0445
G01 X34.1052 Y9.0450
G01 X35.0950 Y9.0450
G01 X35.0950 Y10.0348
G01 X35.0955 Y10.0450
G01 X35.0955 Y12.6306
G01 X36.9694 Y14.5045
G01 X40.0590 Y14.5045
G01 X40.0543 Y14.4731
G01 X40.0495 Y14.3750
G01 X40.0495 Y11.7500
G01 X40.0543 Y11.6519
G01 X40.0687 Y11.5548
G01 X40.0926 Y11.4596
G01 X40.1257 Y11.3671
G01 X40.1676 Y11.2784
G01 X40.2181 Y11.1942
G01 X40.2766 Y11.1153
G01 X40.3425 Y11.0425
G01 X41.9425 Y9.4425
G01 X42.0153 Y9.3766
G01 X42.0942 Y9.3181
G01 X42.1784 Y9.2676
G01 X42.2671 Y9.2257
G01 X42.3596 Y9.1926
G01 X42.4548 Y9.1687
G01 X42.5519 Y9.1543
G01 X42.6500 Y9.1495
G01 X47.8000 Y9.1495
G01 X47.8981 Y9.1543
G01 X47.9952 Y9.1687
G01 X48.0904 Y9.1926
G01 X48.1829 Y9.2257
G01 X48.2716 Y9.2676
G01 X48.3558 Y9.3181
G01 X48.4347 Y9.3766
G01 X48.5075 Y9.4425
G01 X51.7825 Y12.7175
G01 X51.8484 Y12.7903
G01 X51.9069 Y12.8692
G01 X51.9574 Y12.9534
G01 X51.9993 Y13.0421
G01 X52.0324 Y13.1346
G01 X52.0563 Y13.2298
G01 X52.0707 Y13.3269
G01 X52.0755 Y13.4250
G01 X52.0755 Y20.6106
G01 X53.8294 Y22.3645
G01 X65.8250 Y22.3645
G01 X65.8250 Y22.1150
G01 X68.3250 Y22.1150
G01 X68.3250 Y22.3745
G01 X72.1000 Y22.3745
G01 X72.1000 Y22.1250
G01 X74.6000 Y22.1250
G01 X74.6000 Y23.2101
G01 X77.9825 Y26.5925
G01 X78.0484 Y26.6653
G01 X78.1069 Y26.7442
G01 X78.1574 Y26.8284
G01 X78.1993 Y26.9171
G01 X78.2324 Y27.0096
G01 X78.2563 Y27.1048
G01 X78.2707 Y27.2019
G01 X78.2755 Y27.3000
G01 X78.2755 Y30.0300
G01 X78.2707 Y30.1281
G01 X78.2563 Y30.2252
G01 X78.2324 Y30.3204
G01 X78.1993 Y30.4129
G01 X78.1574 Y30.5016
G01 X78.1069 Y30.5858
G01 X78.0484 Y30.6647
G01 X78.0250 Y30.6905
G01 X78.0250 Y31.0600
G01 X76.5250 Y31.0600
G01 X76.5250 Y30.6905
G01 X76.5016 Y30.6647
G01 X76.4431 Y30.5858
G01 X76.3926 Y30.5016
G01 X76.3507 Y30.4129
G01 X76.3176 Y30.3204
G01 X76.2937 Y30.2252
G01 X76.2793 Y30.1281
G01 X76.2745 Y30.0300
G01 X76.2745 Y27.7144
G01 X73.1851 Y24.6250
G01 X72.1000 Y24.6250
G01 X72.1000 Y24.3755
G01 X68.3250 Y24.3755
G01 X68.3250 Y24.6150
G01 X68.0755 Y24.6150
G01 X68.0755 Y32.8356
G01 X70.4309 Y35.1910
G01 X70.4579 Y35.2007
G01 X70.5466 Y35.2426
G01 X70.5581 Y35.2495
G01 X100.0000 Y35.2495
G01 X100.0981 Y35.2543
G01 X100.1952 Y35.2687
G01 X100.2904 Y35.2926
G01 X100.3829 Y35.3257
G01 X100.4716 Y35.3676
G01 X100.5558 Y35.4181
G01 X100.6347 Y35.4766
G01 X100.7075 Y35.5425
G01 X102.6144 Y37.4495
G01 X134.3356 Y37.4495
G01 X136.6745 Y35.1106
G01 X136.6745 Y12.6644
G01 X135.4901 Y11.4800
G01 X133.1250 Y11.4800
G01 X133.1250 Y8.9800
G01 X135.6250 Y8.9800
G01 X135.6250 Y9.2295
G01 X135.6550 Y9.2295
G01 X135.7531 Y9.2343
G01 X135.8502 Y9.2487
G01 X135.9454 Y9.2726
G01 X136.0379 Y9.3057
G01 X136.1266 Y9.3476
G01 X136.2108 Y9.3981
G01 X136.2897 Y9.4566
G01 X136.3625 Y9.5225
G01 X138.3825 Y11.5425
G01 X138.4484 Y11.6153
G01 X138.5069 Y11.6942
G01 X138.5574 Y11.7784
G01 X138.5993 Y11.8671
G01 X138.6324 Y11.9596
G01 X138.6563 Y12.0548
G01 X138.6707 Y12.1519
G01 X138.6755 Y12.2500
G01 X138.6755 Y35.5250
G01 X138.6707 Y35.6231
G01 X138.6563 Y35.7202
G01 X138.6324 Y35.8154
G01 X138.5993 Y35.9079
G01 X138.5574 Y35.9966
G01 X138.5069 Y36.0808
G01 X138.4484 Y36.1597
G01 X138.3825 Y36.2325
G01 X135.4575 Y39.1575
G01 X135.3847 Y39.2234
G01 X135.3058 Y39.2819
G01 X135.2216 Y39.3324
G01 X135.1329 Y39.3743
G01 X135.0404 Y39.4074
G01 X134.9452 Y39.4313
G01 X134.8481 Y39.4457
G01 X134.7500 Y39.4505
G01 X102.2000 Y39.4505
G01 X102.1019 Y39.4457
G01 X102.0048 Y39.4313
G01 X101.9096 Y39.4074
G01 X101.8171 Y39.3743
G01 X101.7284 Y39.3324
G01 X101.6442 Y39.2819
G01 X101.5653 Y39.2234
G01 X101.4925 Y39.1575
G01 X99.5856 Y37.2505
G01 X70.0750 Y37.2505
G01 X69.9769 Y37.2457
G01 X69.8798 Y37.2313
G01 X69.7846 Y37.2074
G01 X69.6921 Y37.1743
G01 X69.6034 Y37.1324
G01 X69.5192 Y37.0819
G01 X69.4403 Y37.0234
G01 X69.3675 Y36.9575
G01 X66.3675 Y33.9575
G01 X66.3016 Y33.8847
G01 X66.2431 Y33.8058
G01 X66.1926 Y33.7216
G01 X66.1507 Y33.6329
G01 X66.1176 Y33.5404
G01 X66.0937 Y33.4452
G01 X66.0793 Y33.3481
G01 X66.0745 Y33.2500
G01 X66.0745 Y24.6150
G01 X65.8250 Y24.6150
G01 X65.8250 Y24.3655
G01 X53.4150 Y24.3655
G01 X53.3169 Y24.3607
G01 X53.2198 Y24.3463
G01 X53.1246 Y24.3224
G01 X53.0321 Y24.2893
G01 X52.9434 Y24.2474
G01 X52.8592 Y24.1969
G01 X52.7803 Y24.1384
G01 X52.7075 Y24.0725
G01 X50.3675 Y21.7325
G01 X50.3016 Y21.6597
G01 X50.2431 Y21.5808
G01 X50.1926 Y21.4966
G01 X50.1507 Y21.4079
G01 X50.1176 Y21.3154
G01 X50.0937 Y21.2202
G01 X50.0793 Y21.1231
G01 X50.0745 Y21.0250
G01 X50.0745 Y13.8394
G01 X47.3856 Y11.1505
G01 X43.0644 Y11.1505
G01 X42.0505 Y12.1644
G01 X42.0505 Y13.9606
G01 X42.5944 Y14.5045
G01 X44.6250 Y14.5045
G01 X44.6352 Y14.5050
G01 X45.6250 Y14.5050
G01 X45.6250 Y15.4948
G01 X45.6255 Y15.5050
G01 X45.6250 Y15.5152
G01 X45.6250 Y16.5050
G01 X44.6352 Y16.5050
G01 X44.6250 Y16.5055
G01 X36.5550 Y16.5055
G01 X36.4569 Y16.5007
G01 X36.3598 Y16.4863
G01 X36.2646 Y16.4624
G01 X36.1721 Y16.4293
G01 X36.0834 Y16.3874
G01 X35.9992 Y16.3369
G01 X35.9203 Y16.2784
G01 X35.8475 Y16.2125
G01 X33.3875 Y13.7525
G01 X33.3216 Y13.6797
G01 X33.2631 Y13.6008
G01 X33.2126 Y13.5166
G01 X33.1707 Y13.4279
G01 X33.1376 Y13.3354
G01 X33.1137 Y13.2402
G01 X33.0993 Y13.1431
G01 X33.0945 Y13.0450
G00 Z2.0000
G00 X35.6350 Y9.0450
G01 F50.00
G01 Z-0.1500
G01 F35.00
G01 X36.4547 Y9.0450
G01 X36.4598 Y9.0437
G01 X36.5569 Y9.0293
G01 X36.6550 Y9.0245
G01 X38.7106 Y9.0245
G01 X40.8175 Y6.9175
G01 X40.8903 Y6.8516
G01 X40.9692 Y6.7931
G01 X41.0534 Y6.7426
G01 X41.1421 Y6.7007
G01 X41.2346 Y6.6676
G01 X41.3298 Y6.6437
G01 X41.4269 Y6.6293
G01 X41.5250 Y6.6245
G01 X49.7500 Y6.6245
G01 X49.8481 Y6.6293
G01 X49.9452 Y6.6437
G01 X50.0404 Y6.6676
G01 X50.1329 Y6.7007
G01 X50.2216 Y6.7426
G01 X50.3058 Y6.7931
G01 X50.3847 Y6.8516
G01 X50.4575 Y6.9175
G01 X57.2644 Y13.7245
G01 X57.6250 Y13.7245
G01 X57.7231 Y13.7293
G01 X57.8202 Y13.7437
G01 X57.8432 Y13.7495
G01 X78.1106 Y13.7495
G01 X80.1425 Y11.7175
G01 X80.2153 Y11.6516
G01 X80.2942 Y11.5931
G01 X80.3784 Y11.5426
G01 X80.4671 Y11.5007
G01 X80.5596 Y11.4676
G01 X80.6548 Y11.4437
G01 X80.7519 Y11.4293
G01 X80.8500 Y11.4245
G01 X82.9250 Y11.4245
G01 X82.9250 Y11.1750
G01 X85.4250 Y11.1750
G01 X85.4250 Y11.4245
G01 X105.1750 Y11.4245
G01 X105.2731 Y11.4293
G01 X105.3702 Y11.4437
G01 X105.4654 Y11.4676
G01 X105.5579 Y11.5007
G01 X105.6466 Y11.5426
G01 X105.7308 Y11.5931
G01 X105.8097 Y11.6516
G01 X105.8825 Y11.7175
G01 X108.4744 Y14.3095
G01 X108.9950 Y14.3095
G01 X108.9950 Y14.0600
G01 X111.4950 Y14.0600
G01 X111.4950 Y15.1451
G01 X113.3994 Y17.0495
G01 X117.2506 Y17.0495
G01 X119.1550 Y15.1451
G01 X119.1550 Y14.0600
G01 X120.2401 Y14.0600
G01 X122.8325 Y11.4675
G01 X122.9053 Y11.4016
G01 X122.9842 Y11.3431
G01 X123.0684 Y11.2926
G01 X123.1571 Y11.2507
G01 X123.2496 Y11.2176
G01 X123.3448 Y11.1937
G01 X123.4419 Y11.1793
G01 X123.5400 Y11.1745
G01 X128.4750 Y11.1745
G01 X128.5731 Y11.1793
G01 X128.6702 Y11.1937
G01 X128.7654 Y11.2176
G01 X128.8579 Y11.2507
G01 X128.9466 Y11.2926
G01 X129.0308 Y11.3431
G01 X129.1097 Y11.4016
G01 X129.1825 Y11.4675
G01 X131.9444 Y14.2295
G01 X133.1250 Y14.2295
G01 X133.1250 Y13.9800
G01 X135.6250 Y13.9800
G01 X135.6250 Y16.4800
G01 X133.1250 Y16.4800
G01 X133.1250 Y16.2305
G01 X131.5300 Y16.2305
G01 X131.4319 Y16.2257
G01 X131.3348 Y16.2113
G01 X131.2396 Y16.1874
G01 X131.1471 Y16.1543
G01 X131.0584 Y16.1124
G01 X130.9742 Y16.0619
G01 X130.8953 Y16.0034
G01 X130.8225 Y15.9375
G01 X128.0606 Y13.1755
G01 X123.9544 Y13.1755
G01 X121.6550 Y15.4749
G01 X121.6550 Y16.5600
G01 X120.5699 Y16.5600
G01 X118.3725 Y18.7575
G01 X118.2997 Y18.8234
G01 X118.2208 Y18.8819
G01 X118.1366 Y18.9324
G01 X118.0479 Y18.9743
G01 X117.9554 Y19.0074
G01 X117.8602 Y19.0313
G01 X117.7631 Y19.0457
G01 X117.6650 Y19.0505
G01 X112.9850 Y19.0505
G01 X112.8869 Y19.0457
G01 X112.7898 Y19.0313
G01 X112.6946 Y19.0074
G01 X112.6021 Y18.9743
G01 X112.5134 Y18.9324
G01 X112.4292 Y18.8819
G01 X112.3503 Y18.8234
G01 X112.2775 Y18.7575
G01 X110.2450 Y16.7249
G01 X109.4355 Y17.5344
G01 X109.4355 Y22.0300
G01 X109.6850 Y22.0300
G01 X109.6850 Y24.5300
G01 X107.1850 Y24.5300
G01 X107.1850 Y22.0300
G01 X107.4345 Y22.0300
G01 X107.4345 Y17.1200
G01 X107.4393 Y17.0219
G01 X107.4537 Y16.9248
G01 X107.4776 Y16.8296
G01 X107.5107 Y16.7371
G01 X107.5526 Y16.6484
G01 X107.6031 Y16.5642
G01 X107.6616 Y16.4853
G01 X107.7275 Y16.4125
G01 X107.8520 Y16.2881
G01 X107.7696 Y16.2674
G01 X107.6771 Y16.2343
G01 X107.5884 Y16.1924
G01 X107.5042 Y16.1419
G01 X107.4253 Y16.0834
G01 X107.3525 Y16.0175
G01 X104.7606 Y13.4255
G01 X92.1644 Y13.4255
G01 X88.8255 Y16.7644
G01 X88.8255 Y22.1150
G01 X89.0750 Y22.1150
G01 X89.0750 Y24.6150
G01 X86.5750 Y24.6150
G01 X86.5750 Y22.1150
G01 X86.8245 Y22.1150
G01 X86.8245 Y16.3500
G01 X86.8293 Y16.2519
G01 X86.8437 Y16.1548
G01 X86.8676 Y16.0596
G01 X86.9007 Y15.9671
G01 X86.9426 Y15.8784
G01 X86.9931 Y15.7942
G01 X87.0516 Y15.7153
G01 X87.1175 Y15.6425
G01 X89.3346 Y13.4255
G01 X85.4250 Y13.4255
G01 X85.4250 Y13.6750
G01 X82.9250 Y13.6750
G01 X82.9250 Y13.4255
G01 X81.2644 Y13.4255
G01 X79.2325 Y15.4575
G01 X79.1597 Y15.5234
G01 X79.0808 Y15.5819
G01 X78.9966 Y15.6324
G01 X78.9079 Y15.6743
G01 X78.8154 Y15.7074
G01 X78.7202 Y15.7313
G01 X78.6231 Y15.7457
G01 X78.5250 Y15.7505
G01 X57.6500 Y15.7505
G01 X57.5519 Y15.7457
G01 X57.4548 Y15.7313
G01 X57.4318 Y15.7255
G01 X56.8500 Y15.7255
G01 X56.7519 Y15.7207
G01 X56.6548 Y15.7063
G01 X56.5596 Y15.6824
G01 X56.4671 Y15.6493
G01 X56.3784 Y15.6074
G01 X56.2942 Y15.5569
G01 X56.2153 Y15.4984
G01 X56.1425 Y15.4325
G01 X49.3356 Y8.6255
G01 X41.9394 Y8.6255
G01 X39.8325 Y10.7325
G01 X39.7597 Y10.7984
G01 X39.6808 Y10.8569
G01 X39.5966 Y10.9074
G01 X39.5079 Y10.9493
G01 X39.4154 Y10.9824
G01 X39.3202 Y11.0063
G01 X39.2231 Y11.0207
G01 X39.1250 Y11.0255
G01 X37.6350 Y11.0255
G01 X37.6350 Y11.0450
G01 X36.6452 Y11.0450
G01 X36.6350 Y11.0455
G01 X36.6248 Y11.0450
G01 X35.6350 Y11.0450
G01 X35.6350 Y10.0552
G01 X35.6345 Y10.0450
G01 X35.6350 Y10.0348
G01 X35.6350 Y9.0450
G00 Z2.0000
G00 X40.4650 Y16.8000
G01 F50.00
G01 Z-0.1500
G01 F35.00
G01 X42.9650 Y16.8000
G01 X42.9650 Y17.0445
G01 X44.6250 Y17.0445
G01 X44.6352 Y17.0450
G01 X45.6250 Y17.0450
G01 X45.6250 Y18.0348
G01 X45.6255 Y18.0450
G01 X45.6250 Y18.0552
G01 X45.6250 Y19.0450
G01 X44.7227 Y19.0450
G01 X44.7181 Y19.0457
G01 X44.6200 Y19.0505
G01 X44.5207 Y19.0455
G01 X42.9650 Y19.0455
G01 X42.9650 Y19.3000
G01 X40.4650 Y19.3000
G01 X40.4650 Y16.8000
G00 Z2.0000
G00 X38.0250 Y24.3500
G01 F50.00
G01 Z-0.1500
G01 F35.00
G01 X38.0250 Y21.8500
G01 X40.5250 Y21.8500
G01 X40.5250 Y22.1245
G01 X44.6250 Y22.1245
G01 X44.6352 Y22.1250
G01 X45.6250 Y22.1250
G01 X45.6250 Y23.1148
G01 X45.6255 Y23.1250
G01 X45.6250 Y23.1352
G01 X45.6250 Y24.1250
G01 X44.6352 Y24.1250
G01 X44.6250 Y24.1255
G01 X40.5250 Y24.1255
G01 X40.5250 Y24.3500
G01 X38.0250 Y24.3500
G00 Z2.0000
G00 X35.6350 Y31.9050
G01 F50.00
G01 Z-0.1500
G01 F35.00
G01 X36.1951 Y31.9050
G01 X38.0125 Y30.0875
G01 X38.0853 Y30.0216
G01 X38.1642 Y29.9631
G01 X38.2484 Y29.9126
G01 X38.3371 Y29.8707
G01 X38.4296 Y29.8376
G01 X38.5248 Y29.8137
G01 X38.6219 Y29.7993
G01 X38.7200 Y29.7945
G01 X43.6250 Y29.7945
G01 X43.6250 Y29.7450
G01 X44.6148 Y29.7450
G01 X44.6250 Y29.7445
G01 X46.0406 Y29.7445
G01 X46.7995 Y28.9856
G01 X46.7995 Y14.3894
G01 X46.3756 Y13.9655
G01 X44.6250 Y13.9655
G01 X44.6148 Y13.9650
G01 X43.6250 Y13.9650
G01 X43.6250 Y12.9752
G01 X43.6245 Y12.9650
G01 X43.6250 Y12.9548
G01 X43.6250 Y11.9650
G01 X44.6148 Y11.9650
G01 X44.6250 Y11.9645
G01 X46.7900 Y11.9645
G01 X46.8881 Y11.9693
G01 X46.9852 Y11.9837
G01 X47.0804 Y12.0076
G01 X47.1729 Y12.0407
G01 X47.2616 Y12.0826
G01 X47.3458 Y12.1331
G01 X47.4247 Y12.1916
G01 X47.4975 Y12.2575
G01 X48.5075 Y13.2675
G01 X48.5734 Y13.3403
G01 X48.6319 Y13.4192
G01 X48.6824 Y13.5034
G01 X48.7243 Y13.5921
G01 X48.7574 Y13.6846
G01 X48.7813 Y13.7798
G01 X48.7957 Y13.8769
G01 X48.8005 Y13.9750
G01 X48.8005 Y29.4000
G01 X48.7957 Y29.4981
G01 X48.7813 Y29.5952
G01 X48.7574 Y29.6904
G01 X48.7243 Y29.7829
G01 X48.6824 Y29.8716
G01 X48.6319 Y29.9558
G01 X48.5734 Y30.0347
G01 X48.5075 Y30.1075
G01 X47.1625 Y31.4525
G01 X47.0897 Y31.5184
G01 X47.0108 Y31.5769
G01 X46.9266 Y31.6274
G01 X46.8379 Y31.6693
G01 X46.7454 Y31.7024
G01 X46.6502 Y31.7263
G01 X46.5531 Y31.7407
G01 X46.4550 Y31.7455
G01 X44.6250 Y31.7455
G01 X44.6148 Y31.7450
G01 X44.5512 Y31.7450
G01 X44.5304 Y31.7524
G01 X44.4352 Y31.7763
G01 X44.3381 Y31.7907
G01 X44.2400 Y31.7955
G01 X39.1344 Y31.7955
G01 X37.6350 Y33.2949
G01 X37.6350 Y33.9050
G01 X35.6350 Y33.9050
G01 X35.6350 Y32.8902
G01 X35.6345 Y32.8800
G01 X35.6350 Y32.8698
G01 X35.6350 Y31.9050
G00 Z2.0000
G00 X33.0950 Y31.9050
G01 F50.00
G01 Z-0.1500
G01 F35.00
G01 X35.0950 Y31.9050
G01 X35.0950 Y33.9050
G01 X33.0950 Y33.9050
G01 X33.0950 Y31.9050
G00 Z2.0000
G00 X30.5550 Y31.9050
G01 F50.00
G01 Z-0.1500
G01 F35.00
G01 X32.5550 Y31.9050
G01 X32.5550 Y33.9050
G01 X30.5550 Y33.9050
G01 X30.5550 Y31.9050
G00 Z2.0000
G00 X28.0150 Y31.9050
G01 F50.00
G01 Z-0.1500
G01 F35.00
G01 X30.0150 Y31.9050
G01 X30.0150 Y33.9050
G01 X28.0150 Y33.9050
G01 X28.0150 Y31.9050
G00 Z2.0000
G00 X25.4750 Y31.9050
G01 F50.00
G01 Z-0.1500
G01 F35.00
G01 X27.4750 Y31.9050
G01 X27.4750 Y33.9050
G01 X25.4750 Y33.9050
G01 X25.4750 Y31.9050
G00 Z2.0000
G00 X20.3945 Y34.8450
G01 F50.00
G01 Z-0.1500
G01 F35.00
G01 X20.3945 Y32.9050
G01 X20.3950 Y32.8948
G01 X20.3950 Y31.9050
G01 X21.3848 Y31.9050
G01 X21.3950 Y31.9045
G01 X21.4052 Y31.9050
G01 X22.3950 Y31.9050
G01 X22.3950 Y32.8948
G01 X22.3955 Y32.9050
G01 X22.3955 Y34.4306
G01 X22.8894 Y34.9245
G01 X51.2956 Y34.9245
G01 X54.6100 Y31.6101
G01 X54.6100 Y30.5250
G01 X57.1100 Y30.5250
G01 X57.1100 Y33.0250
G01 X56.0249 Y33.0250
G01 X52.4175 Y36.6325
G01 X52.3447 Y36.6984
G01 X52.2658 Y36.7569
G01 X52.1816 Y36.8074
G01 X52.0929 Y36.8493
G01 X52.0004 Y36.8824
G01 X51.9052 Y36.9063
G01 X51.8081 Y36.9207
G01 X51.7100 Y36.9255
G01 X22.4750 Y36.9255
G01 X22.3769 Y36.9207
G01 X22.2798 Y36.9063
G01 X22.1846 Y36.8824
G01 X22.0921 Y36.8493
G01 X22.0034 Y36.8074
G01 X21.9192 Y36.7569
G01 X21.8403 Y36.6984
G01 X21.7675 Y36.6325
G01 X20.6875 Y35.5525
G01 X20.6216 Y35.4797
G01 X20.5631 Y35.4008
G01 X20.5126 Y35.3166
G01 X20.4707 Y35.2279
G01 X20.4376 Y35.1354
G01 X20.4137 Y35.0402
G01 X20.3993 Y34.9431
G01 X20.3945 Y34.8450
G00 Z2.0000
G00 X17.8550 Y31.9050
G01 F50.00
G01 Z-0.1500
G01 F35.00
G01 X19.8550 Y31.9050
G01 X19.8550 Y33.9050
G01 X17.8550 Y33.9050
G01 X17.8550 Y31.9050
G00 Z2.0000
G00 X0.5856 Y36.6594
G01 F50.00
G01 Z-0.1500
G01 F35.00
G01 X0.6173 Y36.4458
G01 X0.6697 Y36.2364
G01 X0.7425 Y36.0331
G01 X0.8348 Y35.8379
G01 X0.9458 Y35.6527
G01 X1.0744 Y35.4793
G01 X1.2194 Y35.3194
G01 X1.3793 Y35.1744
G01 X1.5527 Y35.0458
G01 X1.7379 Y34.9348
G01 X1.9331 Y34.8425
G01 X2.1364 Y34.7697
G01 X2.3458 Y34.7173
G01 X2.5594 Y34.6856
G01 X2.7750 Y34.6750
G01 X2.9906 Y34.6856
G01 X3.2042 Y34.7173
G01 X3.4136 Y34.7697
G01 X3.6169 Y34.8425
G01 X3.8121 Y34.9348
G01 X3.9973 Y35.0458
G01 X4.1707 Y35.1744
G01 X4.3306 Y35.3194
G01 X4.4756 Y35.4793
G01 X4.6042 Y35.6527
G01 X4.7152 Y35.8379
G01 X4.8075 Y36.0331
G01 X4.8803 Y36.2364
G01 X4.9327 Y36.4458
G01 X4.9644 Y36.6594
G01 X4.9750 Y36.8750
G01 X4.9644 Y37.0906
G01 X4.9327 Y37.3042
G01 X4.8803 Y37.5136
G01 X4.8075 Y37.7169
G01 X4.7152 Y37.9121
G01 X4.6042 Y38.0973
G01 X4.4756 Y38.2707
G01 X4.3306 Y38.4306
G01 X4.1707 Y38.5756
G01 X3.9973 Y38.7042
G01 X3.8121 Y38.8152
G01 X3.6169 Y38.9075
G01 X3.4136 Y38.9803
G01 X3.2042 Y39.0327
G01 X2.9906 Y39.0644
G01 X2.7750 Y39.0750
G01 X2.5594 Y39.0644
G01 X2.3458 Y39.0327
G01 X2.1364 Y38.9803
G01 X1.9331 Y38.9075
G01 X1.7379 Y38.8152
G01 X1.5527 Y38.7042
G01 X1.3793 Y38.5756
G01 X1.2194 Y38.4306
G01 X1.0744 Y38.2707
G01 X0.9458 Y38.0973
G01 X0.8348 Y37.9121
G01 X0.7425 Y37.7169
G01 X0.6697 Y37.5136
G01 X0.6173 Y37.3042
G01 X0.5856 Y37.0906
G01 X0.5750 Y36.8750
G01 X0.5856 Y36.6594
G00 Z2.0000
G00 X69.8500 Y33.0250
G01 F50.00
G01 Z-0.1500
G01 F35.00
G01 X69.8500 Y30.5250
G01 X72.3500 Y30.5250
G01 X72.3500 Y31.2297
G01 X78.0250 Y31.2300
G01 X78.0250 Y32.3300
G01 X72.3500 Y32.3303
G01 X72.3500 Y33.0250
G01 X69.8500 Y33.0250
G00 Z2.0000
G00 X76.2793 Y33.4319
G01 F50.00
G01 Z-0.1500
G01 F35.00
G01 X76.2937 Y33.3348
G01 X76.3176 Y33.2396
G01 X76.3507 Y33.1471
G01 X76.3926 Y33.0584
G01 X76.4431 Y32.9742
G01 X76.5016 Y32.8953
G01 X76.5250 Y32.8695
G01 X76.5250 Y32.5000
G01 X78.0250 Y32.5000
G01 X78.0250 Y32.5295
G01 X84.6257 Y32.5295
G01 X84.7250 Y32.5245
G01 X86.7250 Y32.5245
G01 X86.7250 Y32.4250
G01 X88.9250 Y32.4250
G01 X88.9250 Y32.5245
G01 X99.8495 Y32.5245
G01 X99.8495 Y25.1750
G01 X99.8543 Y25.0769
G01 X99.8687 Y24.9798
G01 X99.8926 Y24.8846
G01 X99.9257 Y24.7921
G01 X99.9676 Y24.7034
G01 X100.0181 Y24.6192
G01 X100.0766 Y24.5403
G01 X100.1425 Y24.4675
G01 X104.7495 Y19.8606
G01 X104.7495 Y17.2750
G01 X104.7500 Y17.2648
G01 X104.7500 Y16.2750
G01 X105.7398 Y16.2750
G01 X105.7500 Y16.2745
G01 X105.7602 Y16.2750
G01 X106.7500 Y16.2750
G01 X106.7500 Y17.2648
G01 X106.7505 Y17.2750
G01 X106.7505 Y20.2750
G01 X106.7457 Y20.3731
G01 X106.7313 Y20.4702
G01 X106.7074 Y20.5654
G01 X106.6743 Y20.6579
G01 X106.6324 Y20.7466
G01 X106.5819 Y20.8308
G01 X106.5234 Y20.9097
G01 X106.4575 Y20.9825
G01 X101.8505 Y25.5894
G01 X101.8505 Y32.6356
G01 X103.4944 Y34.2795
G01 X107.1850 Y34.2795
G01 X107.1850 Y34.0300
G01 X109.6850 Y34.0300
G01 X109.6850 Y36.5300
G01 X107.1850 Y36.5300
G01 X107.1850 Y36.2805
G01 X103.0800 Y36.2805
G01 X102.9819 Y36.2757
G01 X102.8848 Y36.2613
G01 X102.7896 Y36.2374
G01 X102.6971 Y36.2043
G01 X102.6084 Y36.1624
G01 X102.5242 Y36.1119
G01 X102.4453 Y36.0534
G01 X102.3725 Y35.9875
G01 X100.8098 Y34.4248
G01 X100.7579 Y34.4493
G01 X100.6654 Y34.4824
G01 X100.5702 Y34.5063
G01 X100.4731 Y34.5207
G01 X100.3750 Y34.5255
G01 X88.9250 Y34.5255
G01 X88.9250 Y34.6250
G01 X86.7250 Y34.6250
G01 X86.7250 Y34.5255
G01 X84.8193 Y34.5255
G01 X84.7200 Y34.5305
G01 X77.2750 Y34.5305
G01 X77.1769 Y34.5257
G01 X77.0798 Y34.5113
G01 X76.9846 Y34.4874
G01 X76.8921 Y34.4543
G01 X76.8034 Y34.4124
G01 X76.7192 Y34.3619
G01 X76.6403 Y34.3034
G01 X76.5675 Y34.2375
G01 X76.5016 Y34.1647
G01 X76.4431 Y34.0858
G01 X76.3926 Y34.0016
G01 X76.3507 Y33.9129
G01 X76.3176 Y33.8204
G01 X76.2937 Y33.7252
G01 X76.2793 Y33.6281
G01 X76.2745 Y33.5300
G01 X76.2793 Y33.4319
G00 Z2.0000
G00 X82.9250 Y26.4150
G01 F50.00
G01 Z-0.1500
G01 F35.00
G01 X85.4250 Y26.4150
G01 X85.4250 Y26.6645
G01 X90.0956 Y26.6645
G01 X91.7495 Y25.0106
G01 X91.7495 Y17.5250
G01 X91.7543 Y17.4269
G01 X91.7687 Y17.3298
G01 X91.7926 Y17.2346
G01 X91.8257 Y17.1421
G01 X91.8676 Y17.0534
G01 X91.9181 Y16.9692
G01 X91.9766 Y16.8903
G01 X92.0425 Y16.8175
G01 X94.3425 Y14.5175
G01 X94.4153 Y14.4516
G01 X94.4942 Y14.3931
G01 X94.5784 Y14.3426
G01 X94.6671 Y14.3007
G01 X94.7596 Y14.2676
G01 X94.8548 Y14.2437
G01 X94.9519 Y14.2293
G01 X95.0500 Y14.2245
G01 X101.1600 Y14.2245
G01 X101.2581 Y14.2293
G01 X101.3552 Y14.2437
G01 X101.4504 Y14.2676
G01 X101.5429 Y14.3007
G01 X101.6316 Y14.3426
G01 X101.7158 Y14.3931
G01 X101.7947 Y14.4516
G01 X101.8675 Y14.5175
G01 X103.6249 Y16.2750
G01 X104.2100 Y16.2750
G01 X104.2100 Y17.2648
G01 X104.2105 Y17.2750
G01 X104.2100 Y17.2852
G01 X104.2100 Y18.2750
G01 X103.2202 Y18.2750
G01 X103.2100 Y18.2755
G01 X103.1998 Y18.2750
G01 X102.2100 Y18.2750
G01 X102.2100 Y17.6899
G01 X100.7456 Y16.2255
G01 X95.4644 Y16.2255
G01 X93.7505 Y17.9394
G01 X93.7505 Y25.4250
G01 X93.7457 Y25.5231
G01 X93.7313 Y25.6202
G01 X93.7074 Y25.7154
G01 X93.6743 Y25.8079
G01 X93.6324 Y25.8966
G01 X93.5819 Y25.9808
G01 X93.5234 Y26.0597
G01 X93.4575 Y26.1325
G01 X91.2175 Y28.3725
G01 X91.1447 Y28.4384
G01 X91.0658 Y28.4969
G01 X90.9816 Y28.5474
G01 X90.8929 Y28.5893
G01 X90.8004 Y28.6224
G01 X90.7052 Y28.6463
G01 X90.6081 Y28.6607
G01 X90.5100 Y28.6655
G01 X85.4250 Y28.6655
G01 X85.4250 Y28.9150
G01 X82.9250 Y28.9150
G01 X82.9250 Y26.4150
G00 Z2.0000
G00 X96.7250 Y24.6850
G01 F50.00
G01 Z-0.1500
G01 F35.00
G01 X98.7250 Y24.6850
G01 X98.7250 Y26.6850
G01 X96.7250 Y26.6850
G01 X96.7250 Y24.6850
G00 Z2.0000
G00 X96.7250 Y22.1450
G01 F50.00
G01 Z-0.1500
G01 F35.00
G01 X98.7250 Y22.1450
G01 X98.7250 Y24.1450
G01 X96.7250 Y24.1450
G01 X96.7250 Y22.1450
G00 Z2.0000
G00 X96.7250 Y19.6050
G01 F50.00
G01 Z-0.1500
G01 F35.00
G01 X98.7250 Y19.6050
G01 X98.7250 Y21.6050
G01 X96.7250 Y21.6050
G01 X96.7250 Y19.6050
G00 Z2.0000
G00 X96.7250 Y17.0650
G01 F50.00
G01 Z-0.1500
G01 F35.00
G01 X98.7250 Y17.0650
G01 X98.7250 Y19.0650
G01 X96.7250 Y19.0650
G01 X96.7250 Y17.0650
G00 Z2.0000
G00 X105.1850 Y28.0300
G01 F50.00
G01 Z-0.1500
G01 F35.00
G01 X107.6850 Y28.0300
G01 X107.6850 Y28.2795
G01 X133.1250 Y28.2795
G01 X133.1250 Y27.9500
G01 X135.6250 Y27.9500
G01 X135.6250 Y30.4500
G01 X133.1250 Y30.4500
G01 X133.1250 Y30.2805
G01 X107.6850 Y30.2805
G01 X107.6850 Y30.5300
G01 X105.1850 Y30.5300
G01 X105.1850 Y28.0300
G00 Z2.0000
G00 X119.3850 Y24.5300
G01 F50.00
G01 Z-0.1500
G01 F35.00
G01 X119.3850 Y22.0300
G01 X121.8850 Y22.0300
G01 X121.8850 Y22.2795
G01 X125.8350 Y22.2795
G01 X125.9331 Y22.2843
G01 X126.0302 Y22.2987
G01 X126.1254 Y22.3226
G01 X126.2179 Y22.3557
G01 X126.3066 Y22.3976
G01 X126.3908 Y22.4481
G01 X126.4697 Y22.5066
G01 X126.5425 Y22.5725
G01 X127.1694 Y23.1995
G01 X133.1250 Y23.1995
G01 X133.1250 Y22.9500
G01 X135.6250 Y22.9500
G01 X135.6250 Y25.4500
G01 X133.1250 Y25.4500
G01 X133.1250 Y25.2005
G01 X126.7550 Y25.2005
G01 X126.6569 Y25.1957
G01 X126.5598 Y25.1813
G01 X126.4646 Y25.1574
G01 X126.3721 Y25.1243
G01 X126.2834 Y25.0824
G01 X126.1992 Y25.0319
G01 X126.1203 Y24.9734
G01 X126.0475 Y24.9075
G01 X125.4206 Y24.2805
G01 X121.8850 Y24.2805
G01 X121.8850 Y24.5300
G01 X119.3850 Y24.5300
G00 Z2.0000
G00 X123.6550 Y16.5600
G01 F50.00
G01 Z-0.1500
G01 F35.00
G01 X123.6550 Y14.0600
G01 X126.1550 Y14.0600
G01 X126.1550 Y16.5600
G01 X123.6550 Y16.5600
G00 Z2.0000
G00 X119.1550 Y7.5600
G01 F50.00
G01 Z-0.1500
G01 F35.00
G01 X121.6550 Y7.5600
G01 X121.6550 Y10.0600
G01 X119.1550 Y10.0600
G01 X119.1550 Y7.5600
G00 Z2.0000
G00 X113.4950 Y7.5600
G01 F50.00
G01 Z-0.1500
G01 F35.00
G01 X115.9950 Y7.5600
G01 X115.9950 Y10.0600
G01 X113.4950 Y10.0600
G01 X113.4950 Y7.5600
G00 Z2.0000
G00 X108.9950 Y7.5600
G01 F50.00
G01 Z-0.1500
G01 F35.00
G01 X111.4950 Y7.5600
G01 X111.4950 Y10.0600
G01 X108.9950 Y10.0600
G01 X108.9950 Y7.5600
G00 Z2.0000
G00 X126.2106 Y4.7344
G01 F50.00
G01 Z-0.1500
G01 F35.00
G01 X126.2423 Y4.5208
G01 X126.2947 Y4.3114
G01 X126.3675 Y4.1081
G01 X126.4598 Y3.9129
G01 X126.5708 Y3.7277
G01 X126.6994 Y3.5543
G01 X126.8444 Y3.3944
G01 X127.0043 Y3.2494
G01 X127.1777 Y3.1208
G01 X127.3629 Y3.0098
G01 X127.5581 Y2.9175
G01 X127.7614 Y2.8447
G01 X127.9708 Y2.7923
G01 X128.1844 Y2.7606
G01 X128.4000 Y2.7500
G01 X128.6156 Y2.7606
G01 X128.8292 Y2.7923
G01 X129.0386 Y2.8447
G01 X129.2419 Y2.9175
G01 X129.4371 Y3.0098
G01 X129.6223 Y3.1208
G01 X129.7957 Y3.2494
G01 X129.9556 Y3.3944
G01 X130.1006 Y3.5543
G01 X130.2292 Y3.7277
G01 X130.3402 Y3.9129
G01 X130.4325 Y4.1081
G01 X130.5053 Y4.3114
G01 X130.5577 Y4.5208
G01 X130.5894 Y4.7344
G01 X130.6000 Y4.9500
G01 X130.5894 Y5.1656
G01 X130.5577 Y5.3792
G01 X130.5053 Y5.5886
G01 X130.4325 Y5.7919
G01 X130.3402 Y5.9871
G01 X130.2292 Y6.1723
G01 X130.1006 Y6.3457
G01 X129.9556 Y6.5056
G01 X129.7957 Y6.6506
G01 X129.6223 Y6.7792
G01 X129.4371 Y6.8902
G01 X129.2419 Y6.9825
G01 X129.0386 Y7.0553
G01 X128.8292 Y7.1077
G01 X128.6156 Y7.1394
G01 X128.4000 Y7.1500
G01 X128.1844 Y7.1394
G01 X127.9708 Y7.1077
G01 X127.7614 Y7.0553
G01 X127.5581 Y6.9825
G01 X127.3629 Y6.8902
G01 X127.1777 Y6.7792
G01 X127.0043 Y6.6506
G01 X126.8444 Y6.5056
G01 X126.6994 Y6.3457
G01 X126.5708 Y6.1723
G01 X126.4598 Y5.9871
G01 X126.3675 Y5.7919
G01 X126.2947 Y5.5886
G01 X126.2423 Y5.3792
G01 X126.2106 Y5.1656
G01 X126.2000 Y4.9500
G01 X126.2106 Y4.7344
G00 Z2.0000
G00 X119.3850 Y34.0300
G01 F50.00
G01 Z-0.1500
G01 F35.00
G01 X121.8850 Y34.0300
G01 X121.8850 Y34.2795
G01 X125.4206 Y34.2795
G01 X126.2075 Y33.4925
G01 X126.2803 Y33.4266
G01 X126.3592 Y33.3681
G01 X126.4434 Y33.3176
G01 X126.5321 Y33.2757
G01 X126.6246 Y33.2426
G01 X126.7198 Y33.2187
G01 X126.8169 Y33.2043
G01 X126.9150 Y33.1995
G01 X133.1250 Y33.1995
G01 X133.1250 Y32.9500
G01 X135.6250 Y32.9500
G01 X135.6250 Y35.4500
G01 X133.1250 Y35.4500
G01 X133.1250 Y35.2005
G01 X127.3294 Y35.2005
G01 X126.5425 Y35.9875
G01 X126.4697 Y36.0534
G01 X126.3908 Y36.1119
G01 X126.3066 Y36.1624
G01 X126.2179 Y36.2043
G01 X126.1254 Y36.2374
G01 X126.0302 Y36.2613
G01 X125.9331 Y36.2757
G01 X125.8350 Y36.2805
G01 X121.8850 Y36.2805
G01 X121.8850 Y36.5300
G01 X119.3850 Y36.5300
G01 X119.3850 Y34.0300
G00 Z2.0000
M05
G00 Z2.0000
G00 Z10.00


